X: 1740
T: My Old Fiddle and I
B: australian traditional tunes wiki
M:3/4
L:1/8
R: Waltz
Q: 1/4=100
K:Cmaj
V:1 
G2F2|"C"E6|"G7"D3ED2|"C"C6|C2D2E2|"F"z2F2F2|"C"z2E2E2|"G7"z2D2D2|D6|
"C"ECE2E2|G6|CB,C2C2|E6|"Dm"D2E2F2|A4G2|"G7"B6|(3BdB (3ABA (3GcG|
"C"E3G (3EGE |"G7"D3F (3DFD|"C"E2C2A,2|G,2D2E2|"Dm"FzF3F|"C"EzE3F|"G7"D6-|D3G AG|
"C"E2EC EC|G4FG|"F"AzA2F2|D4EF|"C"G2G2E2|"G7"(3FAF E2(3DFD|"C"C6-|C2||
% abcbook-tune_id 6342d53a97976f6641a08d34


% abcbook-boost 0
% abcbook-tablature 
% abcbook-transpose 
% abcbook-lastupdated 1665324381203
% abcbook-soundfonts 
% abcbook-repeats 1
% NFF Book 2020
% Bush Traditions recording played by Ingrid Wangel

